assets/svg/reconnect_video.svg

<svg width="32" height="30" viewBox="0 0 32 30" fill="none" xmlns="http://www.w3.org/2000/svg">
<g clip-path="url(#clip0)">
<mask id="mask0" mask-type="alpha" maskUnits="userSpaceOnUse" x="-1" y="15" width="18" height="15">
<path d="M17 15H-1V30H17V15Z" fill="#FFFFFF"/>
</mask>
<g mask="url(#mask0)">
<path d="M31 15C31 22.732 24.732 29 17 29C9.26801 29 3 22.732 3 15C3 7.31195 9.22307 1.5 17 1.5C24.7769 1.5 31 7.31195 31 15Z" stroke="white" stroke-width="2"/>
</g>
<mask id="mask1" mask-type="alpha" maskUnits="userSpaceOnUse" x="17" y="0" width="15" height="30">
<path d="M17 0H32V30H17V0Z" fill="#FFFFFF"/>
</mask>
<g mask="url(#mask1)">
<path d="M31 15C31 22.732 24.732 29 17 29C9.26801 29 3 22.732 3 15C3 7.31195 9.22307 1.5 17 1.5C24.7769 1.5 31 7.31195 31 15Z" stroke="white" stroke-width="2"/>
</g>
<path d="M1 16L3 14L5 16H1Z" fill="white" stroke="white"/>
</g>
<defs>
<clipPath id="clip0">
<rect width="32" height="30" fill="white"/>
</clipPath>
</defs>
</svg>

<svg fill="none" height="30" viewBox="0 0 32 30" width="32" xmlns="http://www.w3.org/2000/svg" xmlns:xlink="http://www.w3.org/1999/xlink"><clipPath id="a"><path d="m0 0h32v30h-32z"/></clipPath><mask id="b" height="15" maskUnits="userSpaceOnUse" width="18" x="-1" y="15"><path d="m17 15h-18v15h18z" fill="#fff"/></mask><mask id="c" height="30" maskUnits="userSpaceOnUse" width="15" x="17" y="0"><path d="m17 0h15v30h-15z" fill="#fff"/></mask><g clip-path="url(#a)"><g mask="url(#b)"><path d="m31 15c0 7.732-6.268 14-14 14-7.73199 0-14-6.268-14-14 0-7.68805 6.22307-13.5 14-13.5 7.7769 0 14 5.81195 14 13.5z" stroke="#fff" stroke-width="2"/></g><g mask="url(#c)"><path d="m31 15c0 7.732-6.268 14-14 14-7.73199 0-14-6.268-14-14 0-7.68805 6.22307-13.5 14-13.5 7.7769 0 14 5.81195 14 13.5z" stroke="#fff" stroke-width="2"/></g><path d="m1 16 2-2 2 2z" fill="#fff" stroke="#fff"/></g></svg>
